X:1
T:Title
%%score { ( 1 4 ) | ( 2 3 ) }
L:1/8
M:4/4
K:D
V:1 treble nm="Grand Piano"
V:4 treble 
V:2 bass 
V:3 bass 
V:1
 z4 z2[Q:1/4=110] D>E | F2 F2 E2 D2 | [FA]6 [DF]>[EG] | [FA]2 [FA]2 [DG]2 [DF]2 | [Fd]6 [Fd]>d | %5
 c2 E2 E2 c2 | B2 E2 E2 B2 | [CA]6 [GB]>[Gc] | [Fd]2 [Fd]2 [Fd]2 [Fd]2 | c6 F>F | B2 B2 B2 B2 | %11
 [FA]6 A2 | ^G2 F2 G2 F2 | E2 d2 c2 B2 |[M:3/4] A4 z2 |[M:1/4] [Gc]2 | %16
[M:4/4] [Fd]4[K:bass][K:treble] [Fd]4 | [Gc]6 G>A | B2 B2 [Gc]2 [GB]2 | [FA]6 [DF]>[DF] | %20
 [CA]2 [CE]4 [CA]2 | [FB]2 [FA]2 F2 A2 | ^G2 d2 c2 B2 | A2 A2 B2 c2 | %24
 [Fd]4[K:bass][K:treble] [Fd]4 | [Gc]6 G>A | B2 B2 [Gc]2 [GB]2 | [A,FA]6 F>G | A2 F4 A2 | %29
 B2 A2 F2 [A,FA]2 | [Fd]4 [Ge]4 |[M:3/4] [Fd]6 |] %32
V:2
 z4 z2 [D,F,]>[D,G,D] | [D,A,D]2 [D,A,D]2 [D,G,D]2 [D,F,]2 | [D,A,]6 [D,A,]>[D,A,] | %3
 [D,D]2 [D,D]2 [D,A,]2 [D,A,]2 | [D,A,]6 z z/ F/ | [E,A,E]2 [E,A,C]2 [E,A,C]2 [E,A,E]2 | %6
 [E,^G,D]2 [E,G,D]2 [E,G,D]2 [E,G,D]2 | [A,,A,]6 [A,,A,]>[A,,A,] | %8
 [D,A,]2 [D,A,]2 [D,A,]2 [D,A,]2 | [F,A,F]6 [F,A,]>[F,A,] | [G,B,D]2 [G,DG]2 [G,DG]2 [G,DG]2 | %11
 [D,D]6 [F,A,D]2 | [E,B,D]2 [E,A,D]2 [E,B,D]2 [E,A,D]2 | [E,^G,D]2 [E,G,F]2 [E,A,E]2 [E,G,D]2 | %14
[M:3/4] z2 z2[K:treble] B2 |[M:1/4][K:bass] [E,A,]2 |[M:4/4] A,4 A,4 | %17
 [E,A,]6[K:treble] [A,C]>[A,CG] | [A,CG]2 [A,CG]2[K:bass] [A,,A,]2 [C,A,]2 | %19
 [D,A,]6 [D,A,]>[D,A,] | [A,,A,]2 [A,,A,]4 [A,,A,]2 | [D,A,]2 [D,D]2 [D,A,D]2 [F,A,D]2 | %22
 [E,B,D]2 [E,^G,F]2 [E,G,E]2 [E,G,D]2 | [A,C]2 A,2 [A,^G]2 [A,=G]2 | A,4 A,4 | %25
 [E,A,]6[K:treble] [A,C]>[A,CG] | [A,CG]2 [A,CG]2[K:bass] [A,,A,]2 [C,A,]2 | D,6 F,>G, | %28
 A,2 F,4 A,2 | B,2 A,2 F,2 D,2 | [D,A,]4 [A,E]4 |[M:3/4] [D,A,D]6 |] %32
V:3
 x8 | x8 | x8 | x8 | z4 z2 [D,A,]2 | x8 | x8 | x8 | x8 | x8 | x8 | x8 | x8 | x8 | %14
[M:3/4] A,,6[K:treble] |[M:1/4][K:bass] x2 |[M:4/4] D,2 z2 D,2 z2 | x6[K:treble] x2 | %18
 x4[K:bass] x4 | x8 | x8 | x8 | x8 | x8 | D,2 z2 D,2 z2 | x6[K:treble] x2 | x4[K:bass] x4 | x8 | %28
 x8 | x8 | x8 |[M:3/4] x6 |] %32
V:4
 x8 | x8 | x8 | x8 | x8 | x8 | x8 | x8 | x8 | x8 | x8 | x8 | x8 | x8 |[M:3/4] [A,C]6 |[M:1/4] x2 | %16
[M:4/4] z2[K:bass] A,,2[K:treble] z2 F,2 | x8 | x8 | x8 | x8 | x8 | x8 | x8 | %24
 z2[K:bass] C,2[K:treble] z2 F,2 | x8 | x8 | x8 | x8 | x8 | x8 |[M:3/4] x6 |] %32

